X:1042
M:C
L:1/8
Q:1/4=120
K:D
f|(d/e/f/g/ a>)f g<ee>f|(d/e/f/g/ a>)f b>ga>f|g>ef>d g<ee>f| D/E/F/G/ A>E  F<DD
f| d/e/f/g/ a>f  g<ee>f| d/e/f/g/ a>f  b>ga>f|g>ef>d f<ee>f|(d/e/f/g/ a>)e f<dd|]

